X:1
T:Angel Falls, LMD
T:Angel Falls, LMD
T:Leander Lycurgus Pickett, 1894
T:Public Domain Courtesy of the Cyber Hymnal™
C:Leander Lycurgus Pickett, 1894
Z:Public Domain
Z:Courtesy of the Cyber Hymnal™
%%score ( 1 2 ) 3
L:1/8
Q:1/4=105
M:6/8
K:F
V:1 treble 
V:2 treble 
V:3 bass 
V:1
 [FA] | [FA]2 [FA] [FA]2 [FA] | [FB]2 [FB] [FB]2 [FB] | [FA]2 [FA] [FA]2 F | [EG]3- [EG]2 [FA] | %5
 [FA]2 [FA] [FA]2 [FA] | [FB]2 [FB] [FB]2 [FB] | [FA]2 [Fc] (cB)[EG] | F3- F2 F | %9
 [EG]2 [EG] [EG]2 [EG] | [FA]2 [FA] [FA]2 [FA] | [FA]2 [Fc] [Fc]2 [FA] | [EG]3- [EG]2 [EG] | %13
 [FA]2 [Fc] [FA]2 F | ([EG][DF])E !fermata![DF]2 [CE] | [B,D]2 [DB] [CA]2 [CG] | ([CF]3- [CF]2) |] %17
V:2
 x | x6 | x6 | x5 F | x6 | x6 | x6 | x3 E2 x | F3- F2 F | x6 | x6 | x6 | x6 | x5 F | x2 E x3 | x6 | %16
 x5 |] %17
V:3
 [F,C] | [F,C]2 [F,C] [F,C]2 [F,C] | [B,,D]2 [B,,D] [B,,D]2 [B,,D] | [F,C]2 [F,C] [F,C]2 [F,A,] | %4
 [C,C]3- [C,C]2 [F,C] | [F,C]2 [F,C] [F,C]2 [F,_E] | [B,,D] [B,,D]2 [B,,D] [B,,D]2 | %7
 [C,C]2 [C,A,] [C,G,]2 [C,B,] | [F,A,]3- [F,A,]2 [F,A,] | [C,C]2 [C,C] [C,C]2 [C,C] | %10
 [F,C]2 [F,C] [F,C]2 [F,C] | [F,C]2 [F,A,] [F,A,]2 [F,C] | [C,C]3- [C,C]2 [C,C] | %13
 [F,C]2 [F,A,] [F,A,]2 [F,C] | [F,C]2 [C,B,] !fermata![D,A,]2 [A,,F,] | %15
 [B,,F,]2 [B,,F,] [C,F,]2 [C,B,] | [F,A,]3- [F,A,]2 |] %17

